X:1
T: George Stewart of Grantleys
C:
R:Strathspey
Q: 128
K:F#m
M:4/4
L:1/16
|:cB|A3F A3E F4 E2F2|A3B c3B A2F2 E2cB|A2F2 A2E2 F4 A2B2|ce3 B3c A2F2 F2cB|
A3F A3E F4 E2F2|A3B c3B A2F2 E2cB|A2F2 A2E2 F4 A2B2|ce3 B3c A2F2 F2ce|
f2c2 e2B2 c3B A2f2|e2c2 B3c A3F E2c2|f2c2 e2B2 c3B A2f2|e2c2 B2c2 A2F2 F2ce|
f3a f2c2 e3f edcB|A3B c3B A2F2 E2cB|A2F2 A2E2 F4 A2B2|ce3 B3c A2F2 F2:|
